!! 00000] TT[WS
!!!OTL: Gouqin shangshou
!!!ARE: Asia, China, Shanxi Yuaping
!! Ethnic Group: Han
!! WII, 190
!!!SCT: J0688
!!!YEM: Copyright 1995, estate of Helmut Schaffrath.
**kern
*ICvox
*Ivox
*M2/4
*k[f#]
*G:
{8r
16dd
16b
=1
8a
16a
16g
4a
=2
8a
8dd
4dd
=3
8b
16ee
16ee
8dd
8b
=4
8a
8g
4f#}
=5
{8dd
8dd
8ee
8dd
=6
8b
8a
8b
8dd
=7
16f#
16r
16e
16g
8a
8e
=8
4d}
==
!!!AGN: Xiaodiao. Qingge
!!!ONB: ESAC (Essen Associative Code) Database: CHINA
!!!AMT: simple duple
!!!AIN: vox
!!!EED: Helmut Schaffrath
!!!EEV: 1.0
*-
